**kern	**kern	**kern	**dynam
*part1	*part1	*part1	*part1
*staff3	*staff2	*staff1	*
*I"Piano	*	*	*
*I'Pno.	*	*	*
*clefG2	*clefF4	*clefG2	*
*k[f#c#g#d#]	*k[f#c#g#d#]	*k[f#c#g#d#]	*
*M4/4	*M4/4	*M4/4	*
=	=	=	=
!	!	!LO:TX:a:B:t=Slow Ad Libitum	!
1r	1r	4cc#(>\	p
.	.	16qqb#X/	.
.	.	4cc#\	.
.	.	4g#/	.
.	.	8cc#/L	.
.	.	8g#	.
=	=	=	=
1r	1r	4cc#(>\	pp
.	.	16qqb#X/	.
.	.	4cc#\	.
.	.	4a/	.
.	.	8f#/L	.
.	.	8g#	.
=	=	=	=
1r	1r	4cc#(>\	.
.	.	16qqb#X/	.
.	.	4cc#\	.
.	.	8f#/L	.
.	.	8d#/J	.
.	.	8r	.
.	.	8b#	.
=	=	=	=
*M5/4	*M5/4	*M5/4	*
!	!	!LO:TX:a:B:t=Slower	!
4%5r	4%5r	2cc#)\	p
.	.	4b#X(>\	.
.	.	2cc#)\	.
=	=	=	=
*M6/4	*M6/4	*M6/4	*
!	!	!LO:TX:a:B:t=Tempo Primo	!
1.r	1.r	4b#X(>\	.
.	.	2cc#)\	.
.	.	4b#(>\	.
.	.	2cc#)\	.
=	=	=	=
1.r	1.r	8b#X(>\	mp
.	.	4cc#)\	>
.	.	8b#(>\	.
.	.	4cc#)\	.
.	.	8b#(>\	.
.	.	4cc#)\	.
.	.	8b#(>\	.
.	.	4cc#)\	.
=	=	=	=
*M3/4	*M3/4	*M3/4	*
2.r	2.r	4.b#X\	]
.	.	4.cc#\	.
=	=	=	=
*M4/4	*M4/4	*M4/4	*
!	!	!LO:TX:a:B:t=Faster, Stable, with Some Momentum	!
1r	4c#\	2b#X	mp
.	16qqB#X/	.	.
.	4c#\	.	.
.	4G#\	2cc#	.
.	8c#L\	.	.
.	8G#J\	.	.
=	=	=	=
1r	4c#\	2b#X	.
.	16qqB#X/	.	.
.	4c#\	.	.
.	4A\	2cc#	.
.	8F#L\	.	.
.	8G#J\	.	.
=	=	=	=
1r	4c#\	2b#X	.
.	16qqB#X/	.	.
.	4c#\	.	.
.	8F#L\	2cc#	.
.	8D#J\	.	.
.	8r	.	.
.	8B#\	.	.
=	=	=	=
1r	4E\ 4G#\ 4c#\	4cc#(>\	mf
.	.	16qqb#X/	.
.	4E\ 4G#\ 4c#\	4cc#\	.
.	4E\ 4G#\ 4c#\	4g#/	.
.	4E\ 4G#\ 4c#\	8cc#/L	.
.	.	8g#)/J	.
=	=	=	=
1r	4Fn\ 4A\ 4dn\	4ddn(>\	>
.	.	16qqcc#/	.
.	4F\ 4A\ 4d\	4dd\	.
.	4F\ 4A\ 4d\	4a/	.
.	4F\ 4A\ 4d\	8ddL\	.
.	.	8a)J\	.
=	=	=	=
1r	4F#\ 4d#\	4dd#(>\	.
.	.	16qqddn/	.
.	4r	4dd#X\	.
.	2r	4a#X/	.
.	.	8dd#L\	.
.	.	8a#)J\	.
=	=	=	=
1r	4F#(>\ 4d#(>\	1r	]
.	4F##X\ 4e\	.	.
.	4G#\ 4e#X\	.	.
.	4A)\ 4f#)\	.	.
=	=	=	=
*	*clefG2	*	*
*M3/4	*M3/4	*M3/4	*
2.r	4A/ 4cn/ 4e/ 4f#/	4ccn\ 4dd#\ 4ggn\ 4aa\	]
.	8.r	8.ggL\	.
.	16.r	16.aaK\	.
.	8..A/ 8..c/ 8..e/ 8..f#/	8..ccJ\ 8..dd#J\ 8..ggJ\ 8..aaJ\	.
=	=	=	=
*M3/8	*M3/8	*M3/8	*
4.r	4.r	8r	.
.	.	8aa(>L\	.
.	.	8ff#J\	.
=	=	=	=
4.r	4.r	8.ff#L\	.
.	.	8.ggn)J\	.
=	=	=	=
*M2/4	*M2/4	*M2/4	*
2r	4e/ 4gn/ 4b/	2ee[\ 2ggn[\ 2bb[\	p
.	4r	.	.
*	*clefF4	*	*
=	=	=	=
*M4/4	*M4/4	*M4/4	*
1r	4EE(</	1ee] 1gg] 1bb]	mf
.	16qqDD#/	.	.
.	4EE/	.	.
.	4BBB/	.	.
.	8EE/L	.	.
.	8BBB)/J	.	.
=	=	=	=
*M3/4	*M3/4	*M3/4	*
2.r	8r	8r	.
*	*clefG2	*	*
.	8dn/ 8fn/ 8a/	8ddn\ 8ffn\ 8aa\	p
.	4e/ 4gn/ 4b/	2ee[\ 2ggn[\ 2bb[\	.
.	4r	.	.
*	*clefF4	*	*
=	=	=	=
*M4/4	*M4/4	*M4/4	*
1r	4EE(</	1ee] 1gg] 1bb]	mf
.	16qqDD#/	.	.
.	4EE/	.	.
.	4BBB/	.	.
.	8EE/L	.	.
.	8BBB)/J	.	.
=	=	=	=
1r	8r	8r	.
*	*clefG2	*	*
.	8.e/L 8.gn/L 8.b/L	8.eeL\ 8.ggnL\ 8.bbL\	mp
.	8dn/ 8fn/ 8a/	8ee\ 8gg\ 8bb\	.
.	8.c#/ 8.e/ 8.g#X/	8.ee\ 8.gg\ 8.bb\	.
.	8.B/ 8.d/ 8.f#X/	8.ee\ 8.gg-X\ 8.bb\	.
.	8.B	8.ee	.
*	*clefF4	*	*
=	=	=	=
*M7/8	*M7/8	*M7/8	*
2..r	8GGn(</L	2..r	.
.	8FF#/	.	.
.	8GG/J	.	.
.	4DDn/	.	.
.	8GG/L	.	.
.	8DD)/J	.	.
=	=	=	=
*M8/8	*M8/8	*M8/8	*
1r	8r	8r	.
*	*clefFv4	*clefF4	*
.	8GGGn(</L	8Gn(>L\	.
.	8FFF#/	8F#\	.
.	8GGG/J	8GJ\	.
.	4DDDn/	4Dn\	.
.	8GGG/L	8GL\	.
.	8DDD)/J	8D)J\	.
=	=	=	=
*M12/8	*M12/8	*M12/8	*
1.r	8r	1Gn(> 1B(> 1cn(> 1dn(>	.
.	8GGGn(</L	.	.
.	8FFF#/J	.	.
.	8GGG/L	.	.
.	8EEE-X/	.	.
.	8DDDn/J	.	.
.	8EEE-/L	.	.
.	8BBBB/	.	.
.	8BBBB-X/J	8A[\ 8c#X[\ 8d[\ 8e[\	.
.	8BBBBn/	4.A)\] 4.c#)\] 4.d)\] 4.e)\]	.
.	4AAAA)/	.	.
*	*	*clefG2	*
=	=	=	=
*k[f#c#g#d#a#]	*k[f#c#g#d#a#]	*k[f#c#g#d#a#]	*
*M4/4	*M4/4	*M4/4	*
1r	1BBBB;	1B; 1d#; 1f#;	.
=	=	=	=
*M12/8	*M12/8	*M12/8	*
!	!	!LO:TX:a:B:t=Much Faster	!
1.r	1.r	8b(</L	ppp
.	.	8a#/	<
.	.	8b/J	.
.	.	8f#/L	.
.	.	8e#X/	.
.	.	8f#/J	.
.	.	8d#/L	.
.	.	8c##X/	.
.	.	8d#/J	.
.	.	8f#/L	.
.	.	8e#/	.
.	.	8f#)/J	.
*	*clefF4	*	*
=	=	=	=
1.r	1.BB 1.D# 1.F#	8b(</L	.
.	.	8a#/	.
.	.	8b/J	.
.	.	8f#/L	.
.	.	8e#X/	.
.	.	8f#/J	.
.	.	8d#/L	.
.	.	8c##X/	.
.	.	8d#/J	.
.	.	8f#/L	.
.	.	8e#/	.
.	.	8f#)/J	.
=	=	=	=
1.r	1.BB 1.D# 1.F# 1.G#	8b(</L	[
.	.	8a#/	<
.	.	8b/J	.
.	.	8f#/L	.
.	.	8e#X/	.
.	.	8f#/J	.
.	.	8d#/L	.
.	.	8c##X/	.
.	.	8d#/J	.
.	.	8f#/L	.
.	.	8e#/	.
.	.	8f#)/J	.
=	=	=	=
1.r	1.BB 1.D# 1.E 1.F# 1.G#	8b(</L	.
.	.	8a#/	.
.	.	8b/J	.
.	.	8f#/L	.
.	.	8e#X/	.
.	.	8f#/J	.
.	.	8d#/L	.
.	.	8c##X/	.
.	.	8d#/J	.
.	.	8f#/L	.
.	.	8e#/	.
.	.	8f#)/J	.
=	=	=	=
1.r	1.BB 1.D# 1.E 1.F# 1.G# 1.An	8b(</L	[
.	.	8a#/	<
.	.	8b/J	.
.	.	8f#/L	.
.	.	8e#X/	.
.	.	8f#/J	.
.	.	8d#/L	.
.	.	8c##X/	.
.	.	8d#/J	.
.	.	8f#/L	.
.	.	8e#/	.
.	.	8f#)/J	.
=	=	=	=
1.r	1.E 1.G# 1.B	8b(</L	.
.	.	8a#/	.
.	.	8b/J	.
.	.	8f#/L	.
.	.	8e#X/	.
.	.	8f#/J	.
.	.	8d#/L	.
.	.	8c##X/	.
.	.	8d#/J	.
.	.	8f#/L	.
.	.	8e#/	.
.	.	8f#)/J	.
=||	=||	=||	=||
*k[f#c#g#d#a#e#b#]	*k[f#c#g#d#a#e#b#]	*k[f#c#g#d#a#e#b#]	*
1.r	1.G# 1.B# 1.c# 1.d#	8cc#(>L\	[
.	.	8b#\	<
.	.	8cc#J\	.
.	.	8g#/L	.
.	.	8f##X/	.
.	.	8g#/J	.
.	.	8e#/L	.
.	.	8en/	.
.	.	8e#X/J	.
.	.	8g#/L	.
.	.	8f##/	.
.	.	8g#)/J	.
=	=	=	=
1.r	1.A# 1.c# 1.e#	8cc#(>L\	.
.	.	8b#\	.
.	.	8cc#J\	.
.	.	8g#/L	.
.	.	8f##X/	.
.	.	8g#/J	.
.	.	8e#/L	.
.	.	8en/	.
.	.	8e#X/J	.
.	.	8g#/L	.
.	.	8f##/	.
.	.	8g#)/J	.
=	=	=	=
*	*clefG2	*	*
1.r	1.c# 1.e# 1.g#	8cc#(>L\	.
.	.	8b#\	.
.	.	8cc#J\	.
.	.	8cc#L\	.
.	.	8b#\	.
.	.	8cc#J\	.
.	.	8cc#L\	.
.	.	8b#\	.
.	.	8cc#J\	.
.	.	8cc#L\	.
.	.	8b#\	.
.	.	8cc#)J\	.
=	=	=	=
1.r	1.c# 1.g# 1.b#	8cc#(>L\	.
.	.	8b#\	.
.	.	8cc#J\	.
.	.	8cc#L\	.
.	.	8b#\	.
.	.	8cc#J\	.
.	.	8cc#L\	.
.	.	8b#\	.
.	.	8cc#J\	.
.	.	8cc#L\	.
.	.	8b#\	.
.	.	8cc#)J\	.
=	=	=	=
1.r	2.r	2.cc#	[
.	2.c#/ 2.g#/ 2.b#/	2.dd#	.
=	=	=	=
*k[b-]	*k[b-]	*k[b-]	*
1.r	1.c 1.f 1.a	1.ff 1.ccc	.
*	*clefF4	*	*
=	=	=	=
*M2/4	*M2/4	*M2/4	*
!	!	!LO:TX:a:B:t=Slow, Accelerando	!
2r	4F\	2r	p
.	4F\ 4A\ 4c\	.	<
=	=	=	=
2r	4C/	2r	.
.	4F\ 4A\ 4c\	.	.
=	=	=	=
2r	4BB-/	2r	.
.	4C\ 4D\ 4G\	.	.
=	=	=	=
2r	4CC/	2r	.
.	4r	.	.
=	=	=	=
!	!	!LO:TX:a:B:t=Fast, Pseudo Ragtime	!
2r	8FF/L	2r	.
.	8GG/J	.	.
.	8AA/L	.	.
.	8BB-/J	.	.
=	=	=	=
2r	4F\	4f/	[
.	4F\ 4A\ 4c\	8e/L	.
.	.	8f/J	.
=	=	=	=
2r	4C/	4c/	.
.	4F\ 4A\ 4c\	8f/L	.
.	.	8c/J	.
=	=	=	=
2r	4BB-/	2r	.
.	4C\ 4D\ 4G\	.	.
=	=	=	=
2r	4CC/	2r	.
.	4r	.	.
=	=	=	=
2r	8FF/L	8f/L	.
.	8GG/J	8g/J	.
.	8AA/L	8a/L	.
.	8BB-/J	8b-/J	.
=	=	=	=
2r	4F\	4ff\	.
.	4F\ 4A\ 4c\	8eeL\	.
.	.	8ffJ\	.
=	=	=	=
2r	4C/	4cc\	.
.	4F\ 4A\ 4c\	8ffL\	.
.	.	8ccJ\	.
=	=	=	=
2r	4BB-/	4.g\ 4.b-\ 4.dd\	.
.	4C\ 4D\ 4G\	.	.
.	.	8g\ 8b-\ 8dd\	.
=	=	=	=
2r	4CC/	4f/ 4a/ 4cc/	.
.	4C\ 4E\ 4G\	4f/ 4a/ 4cc/	.
=	=	=	=
2r	4F\	4ff\	.
.	4F\ 4A\ 4c\	8eeL\	.
.	.	8ffJ\	.
=	=	=	=
2r	4C/	4cc\	.
.	4F\ 4A\ 4c\	8ffL\	.
.	.	8ccJ\	.
=	=	=	=
2r	8r	8r	.
.	8r	8g\ 8gg\	.
.	4r	8aL\ 8aaL\	.
.	.	8b-J\ 8bb-J\	.
=	=	=	=
2r	8r	4a\ 4aa\	.
.	8G\	.	.
.	8AL\	4r	.
.	8B-J\	.	.
=	=	=	=
2r	4c\	8r	.
.	.	4ee\	.
.	4G\	.	.
.	.	8dd\	.
=	=	=	=
2r	4E\	4ee\	.
.	4E\ 4G#X\ 4Bn\	8dd#XL\	.
.	.	8eeJ\	.
=	=	=	=
2r	4BBn/	4bn\	.
.	4E\ 4G#X\ 4Bn\	8eeL\	.
.	.	8bJ\	.
=	=	=	=
2r	4AA/	4.f#X/ 4.a/ 4.cc#X/	.
.	4BBn/ 4C#X/ 4F#X/	.	.
.	.	8f#/ 8a/ 8cc#/	.
=	=	=	=
2r	4BBBn/	4e/ 4g#X/ 4bn/	.
.	4BBn\ 4D#X\ 4F#X\	4e/ 4g#/ 4b/	.
=	=	=	=
2r	4E\	8r	.
.	.	8ee\	.
.	4E\ 4G#X\ 4Bn\	8dd#XL\	.
.	.	8eeJ\	.
=	=	=	=
2r	4BBn/	4bn\	.
.	4E\ 4G#X\ 4Bn\	8eeL\	.
.	.	8bJ\	.
=	=	=	=
2r	4AA/	4.f#X/ 4.a/ 4.cc#X/	.
.	4BBn/ 4C#X/ 4F#X/	.	.
.	.	8f#/ 8a/ 8cc#/	.
=	=	=	=
2r	4BBBn/	2d#X/ 2f#X/ 2bn/	.
.	4BBn\ 4D#X\ 4F#X\	.	.
=	=	=	=
2r	4F\	2r	.
.	4F\ 4A\ 4c\	.	.
=	=	=	=
2r	2r	8ffL\	.
.	.	8eeJ\	.
.	.	8ffL\	.
.	.	8eeJ\	.
=	=	=	=
2r	4F#X\	2r	.
.	4F#\ 4B-\ 4c#X\	.	.
=	=	=	=
2r	2r	8ff#XL\	.
.	.	8ffnJ\	.
.	.	8ff#XL\	.
.	.	8ffnJ\	.
=	=	=	=
2r	4G\	2r	.
.	4G\ 4Bn\ 4d\	.	.
=	=	=	=
2r	2r	8ggL\	.
.	.	8ff#XJ\	.
.	.	8ggL\	.
.	.	8ff#J\	.
=	=	=	=
2r	4A-X\	2r	.
.	4A-\ 4c\ 4e-X\	.	.
=	=	=	=
2r	4A-X\	8aa-XL\	.
.	.	8ggJ\	.
.	4A-\ 4c\ 4e-X\	8aa-L\	.
.	.	8ggJ\	.
=	=	=	=
2r	4A-X\	8r	.
.	.	8aa-X\	.
.	4A-\ 4c\ 4e-X\	16bb-L\	.
.	.	16ggJ\	.
.	.	8aa-J\	.
=	=	=	=
2r	4C/	4ee-X\	.
.	4c\ 4e-X\ 4g\	8ccL\	.
.	.	8a-XJ\	.
=	=	=	=
2r	4G\	2b-\ 2dd-X\	.
.	4G\ 4B-\ 4d-X\	.	.
=	=	=	=
2r	4A-X\	2a-X\ 2cc\	.
.	4A-\ 4c\	.	.
=	=	=	=
2r	4A-X\	8r	.
.	.	8aa-X\	.
.	4A-\ 4c\ 4e-X\	16bb-L\	.
.	.	16ggJ\	.
.	.	8aa-J\	.
=	=	=	=
2r	4C/	4ee-X\	.
.	4c\ 4e-X\ 4g\	8ccL\	.
.	.	8a-XJ\	.
=	=	=	=
2r	4G\	4.g/ 4.b-/	.
.	4G\ 4B-\ 4d\	.	.
.	.	8g/ 8b-/	.
=	=	=	=
2r	4E\	8e-X/ 8g/	.
.	.	4.en/ 4.a-X/	.
.	4A-X\ 4B-\	.	.
=	=	=	=
*k[f#c#g#d#]	*k[f#c#g#d#]	*k[f#c#g#d#]	*
2r	4E\	8r	.
.	.	8ee\	.
.	4E\ 4G#\ 4B\	16ff#L\	.
.	.	16dd#J\	.
.	.	8eeJ\	.
=	=	=	=
2r	4GG#/	4b\	.
.	4G#\ 4B\ 4d#\	8g#/L	.
.	.	8e/J	.
=	=	=	=
2r	4D#\	2f#/ 2a/	.
.	4D#\ 4F#\ 4A\	.	.
=	=	=	=
2r	4E\	2e/ 2g#/	.
.	4E\ 4G#\	.	.
=	=	=	=
2r	4E\	8r	.
.	.	8ee\	.
.	4D#\	16dd#L\	.
.	.	16ee\	.
.	.	16dd#\	.
.	.	16eeJ\	.
=	=	=	=
2r	4BB/	8bL\	.
.	.	16b-XL\	.
.	.	16bnJ\	.
.	4AA#X/	16b-XL\	.
.	.	16bnJ\	.
.	.	8r	.
=	=	=	=
2r	4GG#/	8g#/L	.
.	.	16f##X/L	.
.	.	16g#/J	.
.	4FF##X/	16f##/L	.
.	.	16g#/J	.
.	.	8r	.
=	=	=	=
2r	8r	4r	.
.	8EE/	.	.
.	4E;\	4g#;\ 4b;\ 4ee;\	.
=!|:	=!|:	=!|:	=!|:
*k[f#c#g#d#a#]	*k[f#c#g#d#a#]	*k[f#c#g#d#a#]	*
*M3/4	*M3/4	*M3/4	*
!	!	!LO:TX:a:B:t=Allegro Non Troppo	!
2.r	2.r	8bbL\	pp
.	.	8aa#J\	.
.	.	8bbL\	.
.	.	8ff#J\	.
.	.	8dd#L\	.
.	.	8ff#J\	.
=	=	=	=
2.r	2.r	8aa#L\	.
.	.	8bbJ\	.
.	.	8aa#L\	.
.	.	8bbJ\	.
.	.	8aa#L\	.
.	.	8bbJ\	.
=	=	=	=
2.r	2.r	8bbL\	.
.	.	8ff#J\	.
.	.	8dd#L\	.
.	.	8ff#J\	.
.	.	8bbL\	.
.	.	8dd#J\	.
=	=	=	=
2.r	2.r	8cc#L\	.
.	.	8bJ\	.
.	.	8ff#L\	.
.	.	8dd#J\	.
.	.	4bb\	.
*	*clefG2	*	*
=	=	=	=
2.r	8b/L	4ee\	p
.	8a#/J	.	.
.	8b/L	8ff#L\	.
.	8f#/J	8dd#J\	.
.	8d#/L	8bL\	.
.	8f#/J	8dd#J\	.
=	=	=	=
2.r	8a#/L	8cc#L\	.
.	8b/J	8dd#J\	.
.	8a#/L	8eeL\	.
.	8b/J	8ff#J\	.
.	8a#/L	8dd#L\	.
.	8b/J	8ff#J\	.
=	=	=	=
2.r	8b/L	8cc#L\	.
.	8f#/J	8dd#J\	.
.	8d#/L	8cc#L\	.
.	8f#/J	8dd#J\	.
.	8b/L	8ff#L\	.
.	8d#/J	8cc#J\	.
=	=	=	=
2.r	8c#/L	8b/L	.
.	8B/J	8g#/J	.
.	8f#/L	8d#/L	.
.	8d#/J	8g#/J	.
.	4b\	8d#/L	.
.	.	8B/J	.
*clefF4	*	*	*
=	=	=	=
8BL\	4ee\	8g#/L	mf
8A#J\	.	8cc#/J	.
8BL\	8ff#L\	8dd#L\	.
8F#J\	8dd#J\	8cc#J\	.
8D#L\	8bL\	8g#/L	.
8F#J\	8dd#J\	8a#/J	.
=	=	=	=
8A#L\	8cc#L\	8ffnL\	.
8BJ\	8dd#J\	8ff#XJ\	.
8A#L\	8eeL\	8cc#L\	.
8BJ\	8ff#J\	8dd#J\	.
8A#L\	8dd#L\	8fn/L	.
8BJ\	8ff#J\	8f#X/J	.
=	=	=	=
8BL\	8cc#L\	8ff#L\	.
8F#J\	8dd#J\	8cc#J\	.
8D#L\	8cc#L\	8gg#L\	.
8F#J\	8dd#J\	8bbJ\	.
8BL\	8ff#L\	8dd#/L	.
8D#J\	8cc#J\	8f#/J	.
=	=	=	=
8C#/L	8b/L	4f#/	.
8BB/J	8g#/J	.	.
8F#L\	8d#/L	8b/L	.
8D#J\	8g#/J	8g#/J	.
4B\	8d#/L	4f#/	.
.	8b/J	.	.
=	=	=	=
8c#\	8cc#L\	8e#X/	f
8r	8bJ\	8r	.
4r	8a#/L	2r	.
.	8g#/J	.	.
8r	4f#/	.	.
8c#\	.	.	.
=	=	=	=
8d#L\	2.r	4r	.
8eJ\	.	.	.
8d#L\	.	8c#/L	.
8d#J\	.	8B/J	.
8A#L\	.	8f#/L	.
8BJ\	.	8d#/J	.
=	=	=	=
8BL\	8d#/L	8b/L	ff
8BJ\	8d#/J	8f#/J	.
8BL\	8f#/L	8cc#L\	.
8BJ\	8f#/J	8dd#J\	.
8BL\	8f#/L	8eeL\	.
8BJ\	8d#/J	8ff#J\	.
=	=	=	=
8BL\	8g#/L	8eeL\	.
8BJ\	8f#/J	8dd#J\	.
2B\	2f#/	2dd#\	.
=:|!	=:|!	=:|!	=:|!
*k[b-e-]	*k[b-e-]	*k[b-e-]	*
2.r	4Bn/ 4f#X/	4d#X/ 4g#X/	mp
.	4B/ 4f#/	4d#/ 4g#/	.
.	4B/ 4f#/	4d#/ 4g#/	.
=	=	=	=
*M9/8	*M9/8	*M9/8	*
8%9r	4.B-/ 4.f/	4.d/ 4.g/	<
.	4.A/ 4.f/	4.d/ 4.g/	.
.	4.B-/ 4.en/	4.d/ 4.g/	[
=	=	=	=
*M3/4	*M3/4	*M3/4	*
!	!	!LO:TX:a:B:t=Slowing Down	!
2.r	4B-/ 4en/	4d/ 4g/	[
.	4B-/ 4e/	4d/ 4g/	.
.	4B-/ 4e/	4d/ 4g/	.
*	*clefF4	*	*
=	=	=	=
*M9/8	*M9/8	*M9/8	*
8%9r	4.G\ 4.d\	4.en/ 4.g/	<
.	4.G\ 4.d\	4.e/ 4.g/	.
.	4.A\ 4.d\	4.e/ 4.g/	[
=	=	=	=
*M3/4	*M3/4	*M3/4	*
2.r	2.G\ 2.B-\	2.d/ 2.g/	[
=||	=||	=||	=||
*M9/8	*M9/8	*M9/8	*
!	!	!LO:TX:a:B:t=Adagio, Free Tempo	!
8%9r	4.G\ 4.B-\ 4.d\	8%9r	.
.	4.G\ 4.B-\ 4.d\	.	.
.	4.G\ 4.B-\ 4.d\	.	.
=	=	=	=
8%9r	4.G\ 4.B-\ 4.d\	2g/	p
.	4.G\ 4.B-\ 4.d\	.	.
.	.	4.f#X/	.
.	4.G\ 4.B-\ 4.d\	.	.
.	.	4g/	.
=	=	=	=
8%9r	4.G\ 4.c\	4.d/	.
.	4.G\ 4.c\	4.g/	.
.	4.G\ 4.c\	4.d/	.
=	=	=	=
.	.	4qqd/	mp
.	.	4qqe-/	.
!	!	!LO:TX:b:i:t=Grace Notes ala Chopin	!
.	.	4qqf#X/	.
8%9r	4.G\ 4.B-\ 4.d\	2g/	.
.	4.G\ 4.B-\ 4.d\	.	.
.	.	4.f#/	.
.	4.G\ 4.B-\ 4.d\	.	.
.	.	4g/	.
=	=	=	=
8%9r	4.G\ 4.A\	4.e-/	.
.	4.G\ 4.A\	4.c/	.
.	4.G\ 4.A\	4.d/	.
=	=	=	=
*M7/8	*M7/8	*M7/8	*
!	!	!LO:TX:a:B:t=Slowing Down	!
2..r	4.E-\ 4.G\ 4.c\	4.e-/	<
.	2G\ 2B-\	8d/L	.
.	.	8c/J	.
.	.	4d/	.
=	=	=	=
*M6/8	*M6/8	*M6/8	*
!	!	!LO:TX:b:i:t=Deliberate, Forceful	!
2.r	4.D;\ 4.F;\	4.B-/;	[
.	4.AA/; 4.C/; 4.En/;	4.A/;	ff
=	=	=	=
*M9/8	*M9/8	*M9/8	*
8%9r	4.GG/; 4.BB-/; 4.D/;	1G;[	ff
.	4.GG/; 4.BB-/; 4.D/;	.	f
.	4.GG/; 4.BB-/; 4.D/;	.	mf
.	.	8G/]	.
=	=	=	=
!	!	!LO:TX:a:B:t=Largo	!
8%9r	8GG/L	8%9r	p
.	8D/	.	.
.	8D/J	.	.
.	4.D\	.	.
.	8C/	.	.
.	4D\	.	.
=	=	=	=
*M8/8	*M8/8	*M8/8	*
1r	8BB-/L	1r	.
.	8AA/	.	.
.	8GG/J	.	.
.	8D/L	.	.
.	8GG/J	.	.
.	4.D\	.	.
=	=	=	=
*M9/8	*M9/8	*M9/8	*
8%9r	8GG/L	8%9r	mp
.	8D/	.	.
.	8D/J	.	.
.	4.D\	.	.
.	8E-L\	.	.
.	8D\	.	.
.	8E-J\	.	.
=	=	=	=
*M8/8	*M8/8	*M8/8	*
1r	2.D\	1r	.
.	8AA/L	.	.
.	8GG/J	.	.
=	=	=	=
*M12/8	*M12/8	*M12/8	*
1.r	8FF/L	1.r	<
.	8C/	.	.
.	8C/J	.	.
.	4.C/	.	.
.	8FF/L	.	.
.	8C/	.	.
.	8C/J	.	.
.	4.C/	.	.
=	=	=	=
*M18/8	*M18/8	*M18/8	*
4%9r	8GG/L	2r	[
.	8D/	.	.
.	8D/J	.	.
.	4.D\	.	.
*	*	*clefF4	*
.	.	8GL\	.
.	.	8d\	.
.	4r	8dJ\	.
.	.	4.d\	.
.	8GG/L	.	.
.	8D/	.	.
.	8D/J	4r	.
.	4.D\	.	.
.	.	8GL\	.
.	.	8d\	.
.	4r	8dJ\	.
.	.	4.d\	.
*	*clefG2	*	*
.	8gL\	.	f
.	8ddJ\	.	.
=	=	=	=
*M8/8	*M8/8	*M8/8	*
1r	8ddL\	1r	[
.	8dd\	.	.
.	8g\	.	.
.	8dd\	.	.
.	8ddJ\	.	.
.	4.dd;\	.	.
=	=	=	=
*	*clefFv4	*	*
*M15/8	*M15/8	*M15/8	*
1...r	4.AAA/ 4.CC/ 4.EEn/	1...r	.
.	4.BBB-\ 4.DD\ 4.FF#X\	.	.
.	2.GGG/ 2.BBB-/ 2.GG/	.	.
*	*clefF4	*	*
.	4.GG/ 4.BBn/ 4.D/ 4.G/	.	.
*	*	*clefG2	*
=	=	=	=
*k[f#]	*k[f#]	*k[f#]	*
*M5/8	*M5/8	*M5/8	*
!	!	!LO:TX:a:B:t=Allegro Vivace	!
3...r	8GG/	8.g/L	mf
.	4D\	.	.
.	.	16f#/K	.
.	.	8g/J	.
.	8BB/L	16d/L	.
.	.	16g/J	.
.	8D/J	8d/J	.
=	=	=	=
3...r	8GG/	4g/	.
.	4E\	.	.
.	.	8f#/	.
.	8BB/L	4g/	.
.	8E/J	.	.
=	=	=	=
3...r	8FF#/	8.g/L	.
.	4D\	.	.
.	.	16f#/K	.
.	.	8g/J	.
.	8BB/L	16d/L	.
.	.	16g/J	.
.	8D/J	8d/J	.
=	=	=	=
3...r	8GG/	4g/	.
.	4D\	.	.
.	.	8f#/	.
.	8BB/L	4g/	.
.	8D/J	.	.
=	=	=	=
3...r	8GG/	8b\	.
.	4Fn\	4b\	.
.	8BBL\	8a/L	.
.	8F#XJ\	8d/J	.
=	=	=	=
*k[f#c#]	*k[f#c#]	*k[f#c#]	*
3...r	8D\	8.ddL\	.
.	4A\	.	.
.	.	8cc#\	.
.	.	8dd\	.
.	8F#L\	.	.
.	.	16cc#K\	.
.	8AJ\	8ddJ\	.
=	=	=	=
3...r	8D\	4g/	.
.	4B\	.	.
.	.	4a/	.
.	8F#L\	.	.
.	8BJ\	8g/	.
=	=	=	=
3...r	8D-X\	8.ddL\	.
.	4A\	.	.
.	.	8cc#\	.
.	.	8dd\	.
.	8F#L\	.	.
.	.	16cc#K\	.
.	8AJ\	8ddJ\	.
=	=	=	=
3...r	8D\	8g/	.
.	4A\	4a/	.
.	8F#L\	4g/	.
.	8AJ\	.	.
=	=	=	=
3...r	8D\	8f#/	.
.	4cn\	4f#/	.
.	8F#L\	8a/L	.
.	8c#XJ\	8a/J	.
=||	=||	=||	=||
*k[f#c#g#]	*k[f#c#g#]	*k[f#c#g#]	*
3...r	8AA/	16r	.
.	.	16g#/KL	.
.	4E\	8a/	.
.	.	16g#/K	.
.	.	8a/J	.
.	8C#L\	.	.
.	.	16r	.
.	8EJ\	8f#/	.
=	=	=	=
3...r	8AA/	8d/L	.
.	4F#\	8f#/	.
.	.	8a/J	.
.	8C#L\	8cc#/L	.
.	8F#J\	8a/J	.
=	=	=	=
3...r	8GG#/	16r	.
.	.	16g#/KL	.
.	4E\	8a/	.
.	.	16g#/K	.
.	.	8a/J	.
.	8C#L\	.	.
.	.	16r	.
.	8EJ\	8f#/	.
=	=	=	=
3...r	8AA/	8d/L	.
.	4E\	8f#/	.
.	.	8a/J	.
.	8C#L\	8cc#L\	.
.	8EJ\	8ddJ\	.
=	=	=	=
3...r	8AA/	8ee\	.
.	4Gn\	4cc#\	.
.	8C#L\	8g#/L	.
.	8GJ\	8f#/J	.
=	=	=	=
*k[f#c#g#d#]	*k[f#c#g#d#]	*k[f#c#g#d#]	*
3...r	8EE/	4.e/	.
.	4BB/	.	.
.	8GG#/L	8f#/L	.
.	8BB/J	8e/J	.
=	=	=	=
3...r	8EE/	4a/	.
.	4C#/	.	.
.	.	8b\	.
.	8GG#/L	4a/	.
.	8C#/J	.	.
=	=	=	=
3...r	8DD#/	4.e/	.
.	4BB/	.	.
.	8GG#/L	8g#/L	.
.	8BB/J	8e/J	.
=	=	=	=
3...r	8EE/	4a/	.
.	4BB/	.	.
.	.	8b\	.
.	8GG#/L	4cc#\	.
.	8BB/J	.	.
=	=	=	=
3...r	8EE/	4.r	.
.	4Dn\	.	.
.	8GG#/L	8cc#L\	.
.	8D#X/J	8bJ\	.
=	=	=	=
*k[f#c#g#d#a#]	*k[f#c#g#d#a#]	*k[f#c#g#d#a#]	*
3...r	8BB/	4b\	.
.	4F#\	.	.
.	.	8b\	.
.	8D#L\	4b\	.
.	8F#J\	.	.
=	=	=	=
3...r	8BB/	8.b/L	.
.	4G#\	.	.
.	.	8.f#/J	.
.	8D#L\	8g#/L	.
.	8G#J\	8f#/J	.
=	=	=	=
3...r	8AA#/	4b\	.
.	4F#\	.	.
.	.	8b\	.
.	8D#L\	4b\	.
.	8F#J\	.	.
=	=	=	=
3...r	8BB/	8.b/L	.
.	4F#\	.	.
.	.	8.f#/J	.
.	8D#L\	8g#/L	.
.	8F#J\	8f#/J	.
=	=	=	=
3...r	8BB/	4b\	.
.	4An\	.	.
.	.	8b\	.
.	8D#L\	4b\	.
.	8AJ\	.	.
=	=	=	=
*k[b-e-a-d-g-c-]	*k[b-e-a-d-g-c-]	*k[b-e-a-d-g-c-]	*
3...r	8GG-/	8g-/L	.
.	4D-\	8f/	.
.	.	8g-/J	.
.	8BB-/L	8f/L	.
.	8D-/J	8g-/J	.
=	=	=	=
3...r	8GG-/	8d-/L	.
.	4E-\	8e-/	.
.	.	8d-/J	.
.	8BB-/L	8e-/L	.
.	8E-/J	8d-/J	.
=	=	=	=
3...r	8FF/	8g-/L	.
.	4D-\	8f/	.
.	.	8g-/J	.
.	8BB-/L	8f/L	.
.	8D-/J	8g-/J	.
=	=	=	=
3...r	8GG-/	8d-/L	.
.	4D-\	8e-/	.
.	.	8d-/J	.
.	8BB-/L	8e-/L	.
.	8D-/J	8d-/J	.
=	=	=	=
3...r	8GG-/	8b-\	.
.	4C-/	4ee-\	.
.	8Cn/L	8a-/L	.
.	8AA-/J	8e-/J	.
=	=	=	=
*k[b-e-a-d-]	*k[b-e-a-d-]	*k[b-e-a-d-]	*
3...r	8AA-/	4a-/	.
.	4E-\	.	.
.	.	8g/	.
.	8CL\	4a-/	.
.	8E-J\	.	.
=	=	=	=
3...r	8AA-/	4e-/	.
.	4E-\	.	.
.	.	8a-/	.
.	8CL\	4e-/	.
.	8E-J\	.	.
=	=	=	=
3...r	8AA-/	4a-/	.
.	4E-\	.	.
.	.	8g/	.
.	8CL\	4a-/	.
.	8E-J\	.	.
=	=	=	=
3...r	8AA-/	4e-/	.
.	4E-\	.	.
.	.	8a-/	.
.	8CL\	4e-/	.
.	8E-J\	.	.
=	=	=	=
3...r	8AA-/	8A-/ 8c/ 8e-/	.
.	4G-X\	4A-/ 4c/ 4e-/	.
.	8CL\	8A-/L 8c/L 8e-/L	.
.	8G-J\	8A-/J 8c/J 8e-/J	.
=||	=||	=||	=||
*k[f#c#g#d#a#e#b#]	*k[f#c#g#d#a#e#b#]	*k[f#c#g#d#a#e#b#]	*
3...r	8C#/	8c#/ 8e#/ 8g#/	ff
.	4G#\	4c#/ 4e#/ 4g#/	.
.	8E#L\	8c#/L 8e#/L 8g#/L	.
.	8G#J\	8c#/J 8e#/J 8g#/J	.
=	=	=	=
3...r	8D#\	8d#/ 8f##X/ 8a#/	.
.	4A#\	4d#/ 4f##/ 4a#/	.
.	8F##XL\	8d#/L 8f##/L 8a#/L	.
.	8A#J\	8d#/J 8f##/J 8a#/J	.
=	=	=	=
3...r	8G#\	8g#\ 8b#\ 8dd#\	.
.	4f#\	4g#\ 4b#\ 4dd#\	.
.	8B#L\	8g#L\ 8b#L\ 8dd#L\	.
.	8f#J\	8g#J\ 8b#J\ 8dd#J\	.
=	=	=	=
3...r	8c#/	8cc#\ 8ee#\ 8gg#\	.
.	4g#/	4cc#\ 4ee#\ 4gg#\	.
.	8e#/L	8cc#L\ 8ee#L\ 8gg#L\	.
.	8g#/J	8cc#J\ 8ee#J\ 8gg#J\	.
=	=	=	=
*M6/8	*M6/8	*M6/8	*
2.r	8c#/	8cc#\ 8ee#\ 8gg#\	.
.	4g#/	4cc#\ 4ee#\ 4gg#\	.
.	8e#/L	8cc#L\ 8ee#L\ 8gg#L\ 8ccc#L\	.
.	8g#/	8cc#\ 8ee#\ 8gg#\ 8ccc#\	.
.	8c#/J	8cc#J\ 8ee#J\ 8gg#J\ 8ccc#J\	.
=	=	=	=
2.r	8r	8r	.
.	8C#L\ 8E#L\ 8G#L\ 8c#L\	8cc#L\ 8ee#L\ 8gg#L\ 8ccc#L\	.
.	8C#J\ 8E#J\ 8G#J\ 8c#J\	8cc#J\ 8ee#J\ 8gg#J\ 8ccc#J\	.
.	8C#\ 8E#\ 8G#\ 8c#\	8cc#\ 8ee#\ 8gg#\ 8ccc#\	.
.	4C#\ 4E#\ 4G#\ 4c#\	4cc#\ 4ee#\ 4gg#\ 4ccc#\	.
==	==	==	==
*part1	*part1	*part1	*part1
*staff3	*staff2	*staff1	*
*I"Piano	*	*	*
*I'Pno.	*	*	*
*clefG2	*clefF4	*clefG2	*
*k[f#c#g#d#]	*k[f#c#g#d#]	*k[f#c#g#d#]	*
*M4/4	*M4/4	*M4/4	*
=	=	=	=
!	!	!LO:TX:a:B:t=Slow Ad Libitum	!
1r	1r	4cc#(>\	p
.	.	16qqb#X/	.
.	.	4cc#\	.
.	.	4g#/	.
.	.	8cc#/L	.
.	.	8g#	.
=	=	=	=
1r	1r	4cc#(>\	pp
.	.	16qqb#X/	.
.	.	4cc#\	.
.	.	4a/	.
.	.	8f#/L	.
.	.	8g#	.
=	=	=	=
1r	1r	4cc#(>\	.
.	.	16qqb#X/	.
.	.	4cc#\	.
.	.	8f#/L	.
.	.	8d#/J	.
.	.	8r	.
.	.	8b#	.
=	=	=	=
*M5/4	*M5/4	*M5/4	*
!	!	!LO:TX:a:B:t=Slower	!
4%5r	4%5r	2cc#)\	p
.	.	4b#X(>\	.
.	.	2cc#)\	.
=	=	=	=
*M6/4	*M6/4	*M6/4	*
!	!	!LO:TX:a:B:t=Tempo Primo	!
1.r	1.r	4b#X(>\	.
.	.	2cc#)\	.
.	.	4b#(>\	.
.	.	2cc#)\	.
=	=	=	=
1.r	1.r	8b#X(>\	mp
.	.	4cc#)\	>
.	.	8b#(>\	.
.	.	4cc#)\	.
.	.	8b#(>\	.
.	.	4cc#)\	.
.	.	8b#(>\	.
.	.	4cc#)\	.
=	=	=	=
*M3/4	*M3/4	*M3/4	*
2.r	2.r	4.b#X\	]
.	.	4.cc#\	.
=	=	=	=
*M4/4	*M4/4	*M4/4	*
!	!	!LO:TX:a:B:t=Faster, Stable, with Some Momentum	!
1r	4c#\	2b#X	mp
.	16qqB#X/	.	.
.	4c#\	.	.
.	4G#\	2cc#	.
.	8c#L\	.	.
.	8G#J\	.	.
=	=	=	=
1r	4c#\	2b#X	.
.	16qqB#X/	.	.
.	4c#\	.	.
.	4A\	2cc#	.
.	8F#L\	.	.
.	8G#J\	.	.
=	=	=	=
1r	4c#\	2b#X	.
.	16qqB#X/	.	.
.	4c#\	.	.
.	8F#L\	2cc#	.
.	8D#J\	.	.
.	8r	.	.
.	8B#\	.	.
=	=	=	=
1r	4E\ 4G#\ 4c#\	4cc#(>\	mf
.	.	16qqb#X/	.
.	4E\ 4G#\ 4c#\	4cc#\	.
.	4E\ 4G#\ 4c#\	4g#/	.
.	4E\ 4G#\ 4c#\	8cc#/L	.
.	.	8g#)/J	.
=	=	=	=
1r	4Fn\ 4A\ 4dn\	4ddn(>\	>
.	.	16qqcc#/	.
.	4F\ 4A\ 4d\	4dd\	.
.	4F\ 4A\ 4d\	4a/	.
.	4F\ 4A\ 4d\	8ddL\	.
.	.	8a)J\	.
=	=	=	=
1r	4F#\ 4d#\	4dd#(>\	.
.	.	16qqddn/	.
.	4r	4dd#X\	.
.	2r	4a#X/	.
.	.	8dd#L\	.
.	.	8a#)J\	.
=	=	=	=
1r	4F#(>\ 4d#(>\	1r	]
.	4F##X\ 4e\	.	.
.	4G#\ 4e#X\	.	.
.	4A)\ 4f#)\	.	.
=	=	=	=
*	*clefG2	*	*
*M3/4	*M3/4	*M3/4	*
2.r	4A/ 4cn/ 4e/ 4f#/	4ccn\ 4dd#\ 4ggn\ 4aa\	]
.	8.r	8.ggL\	.
.	16.r	16.aaK\	.
.	8..A/ 8..c/ 8..e/ 8..f#/	8..ccJ\ 8..dd#J\ 8..ggJ\ 8..aaJ\	.
=	=	=	=
*M3/8	*M3/8	*M3/8	*
4.r	4.r	8r	.
.	.	8aa(>L\	.
.	.	8ff#J\	.
=	=	=	=
4.r	4.r	8.ff#L\	.
.	.	8.ggn)J\	.
=	=	=	=
*M2/4	*M2/4	*M2/4	*
2r	4e/ 4gn/ 4b/	2ee[\ 2ggn[\ 2bb[\	p
.	4r	.	.
*	*clefF4	*	*
=	=	=	=
*M4/4	*M4/4	*M4/4	*
1r	4EE(</	1ee] 1gg] 1bb]	mf
.	16qqDD#/	.	.
.	4EE/	.	.
.	4BBB/	.	.
.	8EE/L	.	.
.	8BBB)/J	.	.
=	=	=	=
*M3/4	*M3/4	*M3/4	*
2.r	8r	8r	.
*	*clefG2	*	*
.	8dn/ 8fn/ 8a/	8ddn\ 8ffn\ 8aa\	p
.	4e/ 4gn/ 4b/	2ee[\ 2ggn[\ 2bb[\	.
.	4r	.	.
*	*clefF4	*	*
=	=	=	=
*M4/4	*M4/4	*M4/4	*
1r	4EE(</	1ee] 1gg] 1bb]	mf
.	16qqDD#/	.	.
.	4EE/	.	.
.	4BBB/	.	.
.	8EE/L	.	.
.	8BBB)/J	.	.
=	=	=	=
1r	8r	8r	.
*	*clefG2	*	*
.	8.e/L 8.gn/L 8.b/L	8.eeL\ 8.ggnL\ 8.bbL\	mp
.	8dn/ 8fn/ 8a/	8ee\ 8gg\ 8bb\	.
.	8.c#/ 8.e/ 8.g#X/	8.ee\ 8.gg\ 8.bb\	.
.	8.B/ 8.d/ 8.f#X/	8.ee\ 8.gg-X\ 8.bb\	.
.	8.B	8.ee	.
*	*clefF4	*	*
=	=	=	=
*M7/8	*M7/8	*M7/8	*
2..r	8GGn(</L	2..r	.
.	8FF#/	.	.
.	8GG/J	.	.
.	4DDn/	.	.
.	8GG/L	.	.
.	8DD)/J	.	.
=	=	=	=
*M8/8	*M8/8	*M8/8	*
1r	8r	8r	.
*	*clefFv4	*clefF4	*
.	8GGGn(</L	8Gn(>L\	.
.	8FFF#/	8F#\	.
.	8GGG/J	8GJ\	.
.	4DDDn/	4Dn\	.
.	8GGG/L	8GL\	.
.	8DDD)/J	8D)J\	.
=	=	=	=
*M12/8	*M12/8	*M12/8	*
1.r	8r	1Gn(> 1B(> 1cn(> 1dn(>	.
.	8GGGn(</L	.	.
.	8FFF#/J	.	.
.	8GGG/L	.	.
.	8EEE-X/	.	.
.	8DDDn/J	.	.
.	8EEE-/L	.	.
.	8BBBB/	.	.
.	8BBBB-X/J	8A[\ 8c#X[\ 8d[\ 8e[\	.
.	8BBBBn/	4.A)\] 4.c#)\] 4.d)\] 4.e)\]	.
.	4AAAA)/	.	.
*	*	*clefG2	*
=	=	=	=
*k[f#c#g#d#a#]	*k[f#c#g#d#a#]	*k[f#c#g#d#a#]	*
*M4/4	*M4/4	*M4/4	*
1r	1BBBB;	1B; 1d#; 1f#;	.
=	=	=	=
*M12/8	*M12/8	*M12/8	*
!	!	!LO:TX:a:B:t=Much Faster	!
1.r	1.r	8b(</L	ppp
.	.	8a#/	<
.	.	8b/J	.
.	.	8f#/L	.
.	.	8e#X/	.
.	.	8f#/J	.
.	.	8d#/L	.
.	.	8c##X/	.
.	.	8d#/J	.
.	.	8f#/L	.
.	.	8e#/	.
.	.	8f#)/J	.
*	*clefF4	*	*
=	=	=	=
1.r	1.BB 1.D# 1.F#	8b(</L	.
.	.	8a#/	.
.	.	8b/J	.
.	.	8f#/L	.
.	.	8e#X/	.
.	.	8f#/J	.
.	.	8d#/L	.
.	.	8c##X/	.
.	.	8d#/J	.
.	.	8f#/L	.
.	.	8e#/	.
.	.	8f#)/J	.
=	=	=	=
1.r	1.BB 1.D# 1.F# 1.G#	8b(</L	[
.	.	8a#/	<
.	.	8b/J	.
.	.	8f#/L	.
.	.	8e#X/	.
.	.	8f#/J	.
.	.	8d#/L	.
.	.	8c##X/	.
.	.	8d#/J	.
.	.	8f#/L	.
.	.	8e#/	.
.	.	8f#)/J	.
=	=	=	=
1.r	1.BB 1.D# 1.E 1.F# 1.G#	8b(</L	.
.	.	8a#/	.
.	.	8b/J	.
.	.	8f#/L	.
.	.	8e#X/	.
.	.	8f#/J	.
.	.	8d#/L	.
.	.	8c##X/	.
.	.	8d#/J	.
.	.	8f#/L	.
.	.	8e#/	.
.	.	8f#)/J	.
=	=	=	=
1.r	1.BB 1.D# 1.E 1.F# 1.G# 1.An	8b(</L	[
.	.	8a#/	<
.	.	8b/J	.
.	.	8f#/L	.
.	.	8e#X/	.
.	.	8f#/J	.
.	.	8d#/L	.
.	.	8c##X/	.
.	.	8d#/J	.
.	.	8f#/L	.
.	.	8e#/	.
.	.	8f#)/J	.
=	=	=	=
1.r	1.E 1.G# 1.B	8b(</L	.
.	.	8a#/	.
.	.	8b/J	.
.	.	8f#/L	.
.	.	8e#X/	.
.	.	8f#/J	.
.	.	8d#/L	.
.	.	8c##X/	.
.	.	8d#/J	.
.	.	8f#/L	.
.	.	8e#/	.
.	.	8f#)/J	.
=||	=||	=||	=||
*k[f#c#g#d#a#e#b#]	*k[f#c#g#d#a#e#b#]	*k[f#c#g#d#a#e#b#]	*
1.r	1.G# 1.B# 1.c# 1.d#	8cc#(>L\	[
.	.	8b#\	<
.	.	8cc#J\	.
.	.	8g#/L	.
.	.	8f##X/	.
.	.	8g#/J	.
.	.	8e#/L	.
.	.	8en/	.
.	.	8e#X/J	.
.	.	8g#/L	.
.	.	8f##/	.
.	.	8g#)/J	.
=	=	=	=
1.r	1.A# 1.c# 1.e#	8cc#(>L\	.
.	.	8b#\	.
.	.	8cc#J\	.
.	.	8g#/L	.
.	.	8f##X/	.
.	.	8g#/J	.
.	.	8e#/L	.
.	.	8en/	.
.	.	8e#X/J	.
.	.	8g#/L	.
.	.	8f##/	.
.	.	8g#)/J	.
=	=	=	=
*	*clefG2	*	*
1.r	1.c# 1.e# 1.g#	8cc#(>L\	.
.	.	8b#\	.
.	.	8cc#J\	.
.	.	8cc#L\	.
.	.	8b#\	.
.	.	8cc#J\	.
.	.	8cc#L\	.
.	.	8b#\	.
.	.	8cc#J\	.
.	.	8cc#L\	.
.	.	8b#\	.
.	.	8cc#)J\	.
=	=	=	=
1.r	1.c# 1.g# 1.b#	8cc#(>L\	.
.	.	8b#\	.
.	.	8cc#J\	.
.	.	8cc#L\	.
.	.	8b#\	.
.	.	8cc#J\	.
.	.	8cc#L\	.
.	.	8b#\	.
.	.	8cc#J\	.
.	.	8cc#L\	.
.	.	8b#\	.
.	.	8cc#)J\	.
=	=	=	=
1.r	2.r	2.cc#	[
.	2.c#/ 2.g#/ 2.b#/	2.dd#	.
=	=	=	=
*k[b-]	*k[b-]	*k[b-]	*
1.r	1.c 1.f 1.a	1.ff 1.ccc	.
*	*clefF4	*	*
=	=	=	=
*M2/4	*M2/4	*M2/4	*
!	!	!LO:TX:a:B:t=Slow, Accelerando	!
2r	4F\	2r	p
.	4F\ 4A\ 4c\	.	<
=	=	=	=
2r	4C/	2r	.
.	4F\ 4A\ 4c\	.	.
=	=	=	=
2r	4BB-/	2r	.
.	4C\ 4D\ 4G\	.	.
=	=	=	=
2r	4CC/	2r	.
.	4r	.	.
=	=	=	=
!	!	!LO:TX:a:B:t=Fast, Pseudo Ragtime	!
2r	8FF/L	2r	.
.	8GG/J	.	.
.	8AA/L	.	.
.	8BB-/J	.	.
=	=	=	=
2r	4F\	4f/	[
.	4F\ 4A\ 4c\	8e/L	.
.	.	8f/J	.
=	=	=	=
2r	4C/	4c/	.
.	4F\ 4A\ 4c\	8f/L	.
.	.	8c/J	.
=	=	=	=
2r	4BB-/	2r	.
.	4C\ 4D\ 4G\	.	.
=	=	=	=
2r	4CC/	2r	.
.	4r	.	.
=	=	=	=
2r	8FF/L	8f/L	.
.	8GG/J	8g/J	.
.	8AA/L	8a/L	.
.	8BB-/J	8b-/J	.
=	=	=	=
2r	4F\	4ff\	.
.	4F\ 4A\ 4c\	8eeL\	.
.	.	8ffJ\	.
=	=	=	=
2r	4C/	4cc\	.
.	4F\ 4A\ 4c\	8ffL\	.
.	.	8ccJ\	.
=	=	=	=
2r	4BB-/	4.g\ 4.b-\ 4.dd\	.
.	4C\ 4D\ 4G\	.	.
.	.	8g\ 8b-\ 8dd\	.
=	=	=	=
2r	4CC/	4f/ 4a/ 4cc/	.
.	4C\ 4E\ 4G\	4f/ 4a/ 4cc/	.
=	=	=	=
2r	4F\	4ff\	.
.	4F\ 4A\ 4c\	8eeL\	.
.	.	8ffJ\	.
=	=	=	=
2r	4C/	4cc\	.
.	4F\ 4A\ 4c\	8ffL\	.
.	.	8ccJ\	.
=	=	=	=
2r	8r	8r	.
.	8r	8g\ 8gg\	.
.	4r	8aL\ 8aaL\	.
.	.	8b-J\ 8bb-J\	.
=	=	=	=
2r	8r	4a\ 4aa\	.
.	8G\	.	.
.	8AL\	4r	.
.	8B-J\	.	.
=	=	=	=
2r	4c\	8r	.
.	.	4ee\	.
.	4G\	.	.
.	.	8dd\	.
=	=	=	=
2r	4E\	4ee\	.
.	4E\ 4G#X\ 4Bn\	8dd#XL\	.
.	.	8eeJ\	.
=	=	=	=
2r	4BBn/	4bn\	.
.	4E\ 4G#X\ 4Bn\	8eeL\	.
.	.	8bJ\	.
=	=	=	=
2r	4AA/	4.f#X/ 4.a/ 4.cc#X/	.
.	4BBn/ 4C#X/ 4F#X/	.	.
.	.	8f#/ 8a/ 8cc#/	.
=	=	=	=
2r	4BBBn/	4e/ 4g#X/ 4bn/	.
.	4BBn\ 4D#X\ 4F#X\	4e/ 4g#/ 4b/	.
=	=	=	=
2r	4E\	8r	.
.	.	8ee\	.
.	4E\ 4G#X\ 4Bn\	8dd#XL\	.
.	.	8eeJ\	.
=	=	=	=
2r	4BBn/	4bn\	.
.	4E\ 4G#X\ 4Bn\	8eeL\	.
.	.	8bJ\	.
=	=	=	=
2r	4AA/	4.f#X/ 4.a/ 4.cc#X/	.
.	4BBn/ 4C#X/ 4F#X/	.	.
.	.	8f#/ 8a/ 8cc#/	.
=	=	=	=
2r	4BBBn/	2d#X/ 2f#X/ 2bn/	.
.	4BBn\ 4D#X\ 4F#X\	.	.
=	=	=	=
2r	4F\	2r	.
.	4F\ 4A\ 4c\	.	.
=	=	=	=
2r	2r	8ffL\	.
.	.	8eeJ\	.
.	.	8ffL\	.
.	.	8eeJ\	.
=	=	=	=
2r	4F#X\	2r	.
.	4F#\ 4B-\ 4c#X\	.	.
=	=	=	=
2r	2r	8ff#XL\	.
.	.	8ffnJ\	.
.	.	8ff#XL\	.
.	.	8ffnJ\	.
=	=	=	=
2r	4G\	2r	.
.	4G\ 4Bn\ 4d\	.	.
=	=	=	=
2r	2r	8ggL\	.
.	.	8ff#XJ\	.
.	.	8ggL\	.
.	.	8ff#J\	.
=	=	=	=
2r	4A-X\	2r	.
.	4A-\ 4c\ 4e-X\	.	.
=	=	=	=
2r	4A-X\	8aa-XL\	.
.	.	8ggJ\	.
.	4A-\ 4c\ 4e-X\	8aa-L\	.
.	.	8ggJ\	.
=	=	=	=
2r	4A-X\	8r	.
.	.	8aa-X\	.
.	4A-\ 4c\ 4e-X\	16bb-L\	.
.	.	16ggJ\	.
.	.	8aa-J\	.
=	=	=	=
2r	4C/	4ee-X\	.
.	4c\ 4e-X\ 4g\	8ccL\	.
.	.	8a-XJ\	.
=	=	=	=
2r	4G\	2b-\ 2dd-X\	.
.	4G\ 4B-\ 4d-X\	.	.
=	=	=	=
2r	4A-X\	2a-X\ 2cc\	.
.	4A-\ 4c\	.	.
=	=	=	=
2r	4A-X\	8r	.
.	.	8aa-X\	.
.	4A-\ 4c\ 4e-X\	16bb-L\	.
.	.	16ggJ\	.
.	.	8aa-J\	.
=	=	=	=
2r	4C/	4ee-X\	.
.	4c\ 4e-X\ 4g\	8ccL\	.
.	.	8a-XJ\	.
=	=	=	=
2r	4G\	4.g/ 4.b-/	.
.	4G\ 4B-\ 4d\	.	.
.	.	8g/ 8b-/	.
=	=	=	=
2r	4E\	8e-X/ 8g/	.
.	.	4.en/ 4.a-X/	.
.	4A-X\ 4B-\	.	.
=	=	=	=
*k[f#c#g#d#]	*k[f#c#g#d#]	*k[f#c#g#d#]	*
2r	4E\	8r	.
.	.	8ee\	.
.	4E\ 4G#\ 4B\	16ff#L\	.
.	.	16dd#J\	.
.	.	8eeJ\	.
=	=	=	=
2r	4GG#/	4b\	.
.	4G#\ 4B\ 4d#\	8g#/L	.
.	.	8e/J	.
=	=	=	=
2r	4D#\	2f#/ 2a/	.
.	4D#\ 4F#\ 4A\	.	.
=	=	=	=
2r	4E\	2e/ 2g#/	.
.	4E\ 4G#\	.	.
=	=	=	=
2r	4E\	8r	.
.	.	8ee\	.
.	4D#\	16dd#L\	.
.	.	16ee\	.
.	.	16dd#\	.
.	.	16eeJ\	.
=	=	=	=
2r	4BB/	8bL\	.
.	.	16b-XL\	.
.	.	16bnJ\	.
.	4AA#X/	16b-XL\	.
.	.	16bnJ\	.
.	.	8r	.
=	=	=	=
2r	4GG#/	8g#/L	.
.	.	16f##X/L	.
.	.	16g#/J	.
.	4FF##X/	16f##/L	.
.	.	16g#/J	.
.	.	8r	.
=	=	=	=
2r	8r	4r	.
.	8EE/	.	.
.	4E;\	4g#;\ 4b;\ 4ee;\	.
=!|:	=!|:	=!|:	=!|:
*k[f#c#g#d#a#]	*k[f#c#g#d#a#]	*k[f#c#g#d#a#]	*
*M3/4	*M3/4	*M3/4	*
!	!	!LO:TX:a:B:t=Allegro Non Troppo	!
2.r	2.r	8bbL\	pp
.	.	8aa#J\	.
.	.	8bbL\	.
.	.	8ff#J\	.
.	.	8dd#L\	.
.	.	8ff#J\	.
=	=	=	=
2.r	2.r	8aa#L\	.
.	.	8bbJ\	.
.	.	8aa#L\	.
.	.	8bbJ\	.
.	.	8aa#L\	.
.	.	8bbJ\	.
=	=	=	=
2.r	2.r	8bbL\	.
.	.	8ff#J\	.
.	.	8dd#L\	.
.	.	8ff#J\	.
.	.	8bbL\	.
.	.	8dd#J\	.
=	=	=	=
2.r	2.r	8cc#L\	.
.	.	8bJ\	.
.	.	8ff#L\	.
.	.	8dd#J\	.
.	.	4bb\	.
*	*clefG2	*	*
=	=	=	=
2.r	8b/L	4ee\	p
.	8a#/J	.	.
.	8b/L	8ff#L\	.
.	8f#/J	8dd#J\	.
.	8d#/L	8bL\	.
.	8f#/J	8dd#J\	.
=	=	=	=
2.r	8a#/L	8cc#L\	.
.	8b/J	8dd#J\	.
.	8a#/L	8eeL\	.
.	8b/J	8ff#J\	.
.	8a#/L	8dd#L\	.
.	8b/J	8ff#J\	.
=	=	=	=
2.r	8b/L	8cc#L\	.
.	8f#/J	8dd#J\	.
.	8d#/L	8cc#L\	.
.	8f#/J	8dd#J\	.
.	8b/L	8ff#L\	.
.	8d#/J	8cc#J\	.
=	=	=	=
2.r	8c#/L	8b/L	.
.	8B/J	8g#/J	.
.	8f#/L	8d#/L	.
.	8d#/J	8g#/J	.
.	4b\	8d#/L	.
.	.	8B/J	.
*clefF4	*	*	*
=	=	=	=
8BL\	4ee\	8g#/L	mf
8A#J\	.	8cc#/J	.
8BL\	8ff#L\	8dd#L\	.
8F#J\	8dd#J\	8cc#J\	.
8D#L\	8bL\	8g#/L	.
8F#J\	8dd#J\	8a#/J	.
=	=	=	=
8A#L\	8cc#L\	8ffnL\	.
8BJ\	8dd#J\	8ff#XJ\	.
8A#L\	8eeL\	8cc#L\	.
8BJ\	8ff#J\	8dd#J\	.
8A#L\	8dd#L\	8fn/L	.
8BJ\	8ff#J\	8f#X/J	.
=	=	=	=
8BL\	8cc#L\	8ff#L\	.
8F#J\	8dd#J\	8cc#J\	.
8D#L\	8cc#L\	8gg#L\	.
8F#J\	8dd#J\	8bbJ\	.
8BL\	8ff#L\	8dd#/L	.
8D#J\	8cc#J\	8f#/J	.
=	=	=	=
8C#/L	8b/L	4f#/	.
8BB/J	8g#/J	.	.
8F#L\	8d#/L	8b/L	.
8D#J\	8g#/J	8g#/J	.
4B\	8d#/L	4f#/	.
.	8b/J	.	.
=	=	=	=
8c#\	8cc#L\	8e#X/	f
8r	8bJ\	8r	.
4r	8a#/L	2r	.
.	8g#/J	.	.
8r	4f#/	.	.
8c#\	.	.	.
=	=	=	=
8d#L\	2.r	4r	.
8eJ\	.	.	.
8d#L\	.	8c#/L	.
8d#J\	.	8B/J	.
8A#L\	.	8f#/L	.
8BJ\	.	8d#/J	.
=	=	=	=
8BL\	8d#/L	8b/L	ff
8BJ\	8d#/J	8f#/J	.
8BL\	8f#/L	8cc#L\	.
8BJ\	8f#/J	8dd#J\	.
8BL\	8f#/L	8eeL\	.
8BJ\	8d#/J	8ff#J\	.
=	=	=	=
8BL\	8g#/L	8eeL\	.
8BJ\	8f#/J	8dd#J\	.
2B\	2f#/	2dd#\	.
=:|!	=:|!	=:|!	=:|!
*k[b-e-]	*k[b-e-]	*k[b-e-]	*
2.r	4Bn/ 4f#X/	4d#X/ 4g#X/	mp
.	4B/ 4f#/	4d#/ 4g#/	.
.	4B/ 4f#/	4d#/ 4g#/	.
=	=	=	=
*M9/8	*M9/8	*M9/8	*
8%9r	4.B-/ 4.f/	4.d/ 4.g/	<
.	4.A/ 4.f/	4.d/ 4.g/	.
.	4.B-/ 4.en/	4.d/ 4.g/	[
=	=	=	=
*M3/4	*M3/4	*M3/4	*
!	!	!LO:TX:a:B:t=Slowing Down	!
2.r	4B-/ 4en/	4d/ 4g/	[
.	4B-/ 4e/	4d/ 4g/	.
.	4B-/ 4e/	4d/ 4g/	.
*	*clefF4	*	*
=	=	=	=
*M9/8	*M9/8	*M9/8	*
8%9r	4.G\ 4.d\	4.en/ 4.g/	<
.	4.G\ 4.d\	4.e/ 4.g/	.
.	4.A\ 4.d\	4.e/ 4.g/	[
=	=	=	=
*M3/4	*M3/4	*M3/4	*
2.r	2.G\ 2.B-\	2.d/ 2.g/	[
=||	=||	=||	=||
*M9/8	*M9/8	*M9/8	*
!	!	!LO:TX:a:B:t=Adagio, Free Tempo	!
8%9r	4.G\ 4.B-\ 4.d\	8%9r	.
.	4.G\ 4.B-\ 4.d\	.	.
.	4.G\ 4.B-\ 4.d\	.	.
=	=	=	=
8%9r	4.G\ 4.B-\ 4.d\	2g/	p
.	4.G\ 4.B-\ 4.d\	.	.
.	.	4.f#X/	.
.	4.G\ 4.B-\ 4.d\	.	.
.	.	4g/	.
=	=	=	=
8%9r	4.G\ 4.c\	4.d/	.
.	4.G\ 4.c\	4.g/	.
.	4.G\ 4.c\	4.d/	.
=	=	=	=
.	.	4qqd/	mp
.	.	4qqe-/	.
!	!	!LO:TX:b:i:t=Grace Notes ala Chopin	!
.	.	4qqf#X/	.
8%9r	4.G\ 4.B-\ 4.d\	2g/	.
.	4.G\ 4.B-\ 4.d\	.	.
.	.	4.f#/	.
.	4.G\ 4.B-\ 4.d\	.	.
.	.	4g/	.
=	=	=	=
8%9r	4.G\ 4.A\	4.e-/	.
.	4.G\ 4.A\	4.c/	.
.	4.G\ 4.A\	4.d/	.
=	=	=	=
*M7/8	*M7/8	*M7/8	*
!	!	!LO:TX:a:B:t=Slowing Down	!
2..r	4.E-\ 4.G\ 4.c\	4.e-/	<
.	2G\ 2B-\	8d/L	.
.	.	8c/J	.
.	.	4d/	.
=	=	=	=
*M6/8	*M6/8	*M6/8	*
!	!	!LO:TX:b:i:t=Deliberate, Forceful	!
2.r	4.D;\ 4.F;\	4.B-/;	[
.	4.AA/; 4.C/; 4.En/;	4.A/;	ff
=	=	=	=
*M9/8	*M9/8	*M9/8	*
8%9r	4.GG/; 4.BB-/; 4.D/;	1G;[	ff
.	4.GG/; 4.BB-/; 4.D/;	.	f
.	4.GG/; 4.BB-/; 4.D/;	.	mf
.	.	8G/]	.
=	=	=	=
!	!	!LO:TX:a:B:t=Largo	!
8%9r	8GG/L	8%9r	p
.	8D/	.	.
.	8D/J	.	.
.	4.D\	.	.
.	8C/	.	.
.	4D\	.	.
=	=	=	=
*M8/8	*M8/8	*M8/8	*
1r	8BB-/L	1r	.
.	8AA/	.	.
.	8GG/J	.	.
.	8D/L	.	.
.	8GG/J	.	.
.	4.D\	.	.
=	=	=	=
*M9/8	*M9/8	*M9/8	*
8%9r	8GG/L	8%9r	mp
.	8D/	.	.
.	8D/J	.	.
.	4.D\	.	.
.	8E-L\	.	.
.	8D\	.	.
.	8E-J\	.	.
=	=	=	=
*M8/8	*M8/8	*M8/8	*
1r	2.D\	1r	.
.	8AA/L	.	.
.	8GG/J	.	.
=	=	=	=
*M12/8	*M12/8	*M12/8	*
1.r	8FF/L	1.r	<
.	8C/	.	.
.	8C/J	.	.
.	4.C/	.	.
.	8FF/L	.	.
.	8C/	.	.
.	8C/J	.	.
.	4.C/	.	.
=	=	=	=
*M18/8	*M18/8	*M18/8	*
4%9r	8GG/L	2r	[
.	8D/	.	.
.	8D/J	.	.
.	4.D\	.	.
*	*	*clefF4	*
.	.	8GL\	.
.	.	8d\	.
.	4r	8dJ\	.
.	.	4.d\	.
.	8GG/L	.	.
.	8D/	.	.
.	8D/J	4r	.
.	4.D\	.	.
.	.	8GL\	.
.	.	8d\	.
.	4r	8dJ\	.
.	.	4.d\	.
*	*clefG2	*	*
.	8gL\	.	f
.	8ddJ\	.	.
=	=	=	=
*M8/8	*M8/8	*M8/8	*
1r	8ddL\	1r	[
.	8dd\	.	.
.	8g\	.	.
.	8dd\	.	.
.	8ddJ\	.	.
.	4.dd;\	.	.
=	=	=	=
*	*clefFv4	*	*
*M15/8	*M15/8	*M15/8	*
1...r	4.AAA/ 4.CC/ 4.EEn/	1...r	.
.	4.BBB-\ 4.DD\ 4.FF#X\	.	.
.	2.GGG/ 2.BBB-/ 2.GG/	.	.
*	*clefF4	*	*
.	4.GG/ 4.BBn/ 4.D/ 4.G/	.	.
*	*	*clefG2	*
=	=	=	=
*k[f#]	*k[f#]	*k[f#]	*
*M5/8	*M5/8	*M5/8	*
!	!	!LO:TX:a:B:t=Allegro Vivace	!
3...r	8GG/	8.g/L	mf
.	4D\	.	.
.	.	16f#/K	.
.	.	8g/J	.
.	8BB/L	16d/L	.
.	.	16g/J	.
.	8D/J	8d/J	.
=	=	=	=
3...r	8GG/	4g/	.
.	4E\	.	.
.	.	8f#/	.
.	8BB/L	4g/	.
.	8E/J	.	.
=	=	=	=
3...r	8FF#/	8.g/L	.
.	4D\	.	.
.	.	16f#/K	.
.	.	8g/J	.
.	8BB/L	16d/L	.
.	.	16g/J	.
.	8D/J	8d/J	.
=	=	=	=
3...r	8GG/	4g/	.
.	4D\	.	.
.	.	8f#/	.
.	8BB/L	4g/	.
.	8D/J	.	.
=	=	=	=
3...r	8GG/	8b\	.
.	4Fn\	4b\	.
.	8BBL\	8a/L	.
.	8F#XJ\	8d/J	.
=	=	=	=
*k[f#c#]	*k[f#c#]	*k[f#c#]	*
3...r	8D\	8.ddL\	.
.	4A\	.	.
.	.	8cc#\	.
.	.	8dd\	.
.	8F#L\	.	.
.	.	16cc#K\	.
.	8AJ\	8ddJ\	.
=	=	=	=
3...r	8D\	4g/	.
.	4B\	.	.
.	.	4a/	.
.	8F#L\	.	.
.	8BJ\	8g/	.
=	=	=	=
3...r	8D-X\	8.ddL\	.
.	4A\	.	.
.	.	8cc#\	.
.	.	8dd\	.
.	8F#L\	.	.
.	.	16cc#K\	.
.	8AJ\	8ddJ\	.
=	=	=	=
3...r	8D\	8g/	.
.	4A\	4a/	.
.	8F#L\	4g/	.
.	8AJ\	.	.
=	=	=	=
3...r	8D\	8f#/	.
.	4cn\	4f#/	.
.	8F#L\	8a/L	.
.	8c#XJ\	8a/J	.
=||	=||	=||	=||
*k[f#c#g#]	*k[f#c#g#]	*k[f#c#g#]	*
3...r	8AA/	16r	.
.	.	16g#/KL	.
.	4E\	8a/	.
.	.	16g#/K	.
.	.	8a/J	.
.	8C#L\	.	.
.	.	16r	.
.	8EJ\	8f#/	.
=	=	=	=
3...r	8AA/	8d/L	.
.	4F#\	8f#/	.
.	.	8a/J	.
.	8C#L\	8cc#/L	.
.	8F#J\	8a/J	.
=	=	=	=
3...r	8GG#/	16r	.
.	.	16g#/KL	.
.	4E\	8a/	.
.	.	16g#/K	.
.	.	8a/J	.
.	8C#L\	.	.
.	.	16r	.
.	8EJ\	8f#/	.
=	=	=	=
3...r	8AA/	8d/L	.
.	4E\	8f#/	.
.	.	8a/J	.
.	8C#L\	8cc#L\	.
.	8EJ\	8ddJ\	.
=	=	=	=
3...r	8AA/	8ee\	.
.	4Gn\	4cc#\	.
.	8C#L\	8g#/L	.
.	8GJ\	8f#/J	.
=	=	=	=
*k[f#c#g#d#]	*k[f#c#g#d#]	*k[f#c#g#d#]	*
3...r	8EE/	4.e/	.
.	4BB/	.	.
.	8GG#/L	8f#/L	.
.	8BB/J	8e/J	.
=	=	=	=
3...r	8EE/	4a/	.
.	4C#/	.	.
.	.	8b\	.
.	8GG#/L	4a/	.
.	8C#/J	.	.
=	=	=	=
3...r	8DD#/	4.e/	.
.	4BB/	.	.
.	8GG#/L	8g#/L	.
.	8BB/J	8e/J	.
=	=	=	=
3...r	8EE/	4a/	.
.	4BB/	.	.
.	.	8b\	.
.	8GG#/L	4cc#\	.
.	8BB/J	.	.
=	=	=	=
3...r	8EE/	4.r	.
.	4Dn\	.	.
.	8GG#/L	8cc#L\	.
.	8D#X/J	8bJ\	.
=	=	=	=
*k[f#c#g#d#a#]	*k[f#c#g#d#a#]	*k[f#c#g#d#a#]	*
3...r	8BB/	4b\	.
.	4F#\	.	.
.	.	8b\	.
.	8D#L\	4b\	.
.	8F#J\	.	.
=	=	=	=
3...r	8BB/	8.b/L	.
.	4G#\	.	.
.	.	8.f#/J	.
.	8D#L\	8g#/L	.
.	8G#J\	8f#/J	.
=	=	=	=
3...r	8AA#/	4b\	.
.	4F#\	.	.
.	.	8b\	.
.	8D#L\	4b\	.
.	8F#J\	.	.
=	=	=	=
3...r	8BB/	8.b/L	.
.	4F#\	.	.
.	.	8.f#/J	.
.	8D#L\	8g#/L	.
.	8F#J\	8f#/J	.
=	=	=	=
3...r	8BB/	4b\	.
.	4An\	.	.
.	.	8b\	.
.	8D#L\	4b\	.
.	8AJ\	.	.
=	=	=	=
*k[b-e-a-d-g-c-]	*k[b-e-a-d-g-c-]	*k[b-e-a-d-g-c-]	*
3...r	8GG-/	8g-/L	.
.	4D-\	8f/	.
.	.	8g-/J	.
.	8BB-/L	8f/L	.
.	8D-/J	8g-/J	.
=	=	=	=
3...r	8GG-/	8d-/L	.
.	4E-\	8e-/	.
.	.	8d-/J	.
.	8BB-/L	8e-/L	.
.	8E-/J	8d-/J	.
=	=	=	=
3...r	8FF/	8g-/L	.
.	4D-\	8f/	.
.	.	8g-/J	.
.	8BB-/L	8f/L	.
.	8D-/J	8g-/J	.
=	=	=	=
3...r	8GG-/	8d-/L	.
.	4D-\	8e-/	.
.	.	8d-/J	.
.	8BB-/L	8e-/L	.
.	8D-/J	8d-/J	.
=	=	=	=
3...r	8GG-/	8b-\	.
.	4C-/	4ee-\	.
.	8Cn/L	8a-/L	.
.	8AA-/J	8e-/J	.
=	=	=	=
*k[b-e-a-d-]	*k[b-e-a-d-]	*k[b-e-a-d-]	*
3...r	8AA-/	4a-/	.
.	4E-\	.	.
.	.	8g/	.
.	8CL\	4a-/	.
.	8E-J\	.	.
=	=	=	=
3...r	8AA-/	4e-/	.
.	4E-\	.	.
.	.	8a-/	.
.	8CL\	4e-/	.
.	8E-J\	.	.
=	=	=	=
3...r	8AA-/	4a-/	.
.	4E-\	.	.
.	.	8g/	.
.	8CL\	4a-/	.
.	8E-J\	.	.
=	=	=	=
3...r	8AA-/	4e-/	.
.	4E-\	.	.
.	.	8a-/	.
.	8CL\	4e-/	.
.	8E-J\	.	.
=	=	=	=
3...r	8AA-/	8A-/ 8c/ 8e-/	.
.	4G-X\	4A-/ 4c/ 4e-/	.
.	8CL\	8A-/L 8c/L 8e-/L	.
.	8G-J\	8A-/J 8c/J 8e-/J	.
=||	=||	=||	=||
*k[f#c#g#d#a#e#b#]	*k[f#c#g#d#a#e#b#]	*k[f#c#g#d#a#e#b#]	*
3...r	8C#/	8c#/ 8e#/ 8g#/	ff
.	4G#\	4c#/ 4e#/ 4g#/	.
.	8E#L\	8c#/L 8e#/L 8g#/L	.
.	8G#J\	8c#/J 8e#/J 8g#/J	.
=	=	=	=
3...r	8D#\	8d#/ 8f##X/ 8a#/	.
.	4A#\	4d#/ 4f##/ 4a#/	.
.	8F##XL\	8d#/L 8f##/L 8a#/L	.
.	8A#J\	8d#/J 8f##/J 8a#/J	.
=	=	=	=
3...r	8G#\	8g#\ 8b#\ 8dd#\	.
.	4f#\	4g#\ 4b#\ 4dd#\	.
.	8B#L\	8g#L\ 8b#L\ 8dd#L\	.
.	8f#J\	8g#J\ 8b#J\ 8dd#J\	.
=	=	=	=
3...r	8c#/	8cc#\ 8ee#\ 8gg#\	.
.	4g#/	4cc#\ 4ee#\ 4gg#\	.
.	8e#/L	8cc#L\ 8ee#L\ 8gg#L\	.
.	8g#/J	8cc#J\ 8ee#J\ 8gg#J\	.
=	=	=	=
*M6/8	*M6/8	*M6/8	*
2.r	8c#/	8cc#\ 8ee#\ 8gg#\	.
.	4g#/	4cc#\ 4ee#\ 4gg#\	.
.	8e#/L	8cc#L\ 8ee#L\ 8gg#L\ 8ccc#L\	.
.	8g#/	8cc#\ 8ee#\ 8gg#\ 8ccc#\	.
.	8c#/J	8cc#J\ 8ee#J\ 8gg#J\ 8ccc#J\	.
=	=	=	=
2.r	8r	8r	.
.	8C#L\ 8E#L\ 8G#L\ 8c#L\	8cc#L\ 8ee#L\ 8gg#L\ 8ccc#L\	.
.	8C#J\ 8E#J\ 8G#J\ 8c#J\	8cc#J\ 8ee#J\ 8gg#J\ 8ccc#J\	.
.	8C#\ 8E#\ 8G#\ 8c#\	8cc#\ 8ee#\ 8gg#\ 8ccc#\	.
.	4C#\ 4E#\ 4G#\ 4c#\	4cc#\ 4ee#\ 4gg#\ 4ccc#\	.
==	==	==	==
*-	*-	*-	*-
